X:38
T:Kitchen Girl
A:New England
S:Sessions
D:David Bromberg
N:Note minor second part - actually in Aminor
R:Reel
M:4/4
L:1/8
K:AMix
"A"([a2c2][a2c2])"G"([g2B2][g2B2])| "A"(ef)ed c2 cd | (ec)ef (ga)ba | "E"g2e2e2 eg |
"A"(ab)af "G"(ga)gd | "A"(ef)ed (cd)ef |"G"g2 d2 "E"efed  |1 "A"c2 A2 A2 (ef):|2 "A"c2A2A2 (A[DB]) ||
"Am"[=c4E4]"G"[B4D4]  | "Am"(AB)AG (ED)EG | A2 AB =c2 d2 | "Em"e3 (=f e2) [A2A2] |
"Am"[AA]B=cA "G"(BA)GB | "Am"(AB)AG (EG)AB | =cBAc "G"(BA) (GB) |1 "Am"A3 (BA2) [A2A2] :|2 "Am"A3 (B[A4A4]) ||
